!! 00026] TT[TB
!! Eigene Aufnahme, Guangzhou, 5.5.87
!!!OTL: Dudar he maria
!!!ARE: Xinjiang
!! Ethnic Group: Hasake
!! MM,    S. 232 (Quelle S. Bandprotokoll)
!!!SCT: C0959
!!!YEM: Copyright 1995, estate of Helmut Schaffrath.
**kern
*ICvox
*Ivox
*M2/4
*k[f#c#]
*D:
{8.d
16e
4f#
=1
8g
8a
8g
8f#
=2
4e
4r
=3
8f#
8e
8f#
8g
=4
2a}
=5
{8.d
16e
4f#
=6
8g
8a
8g
8f#
=7
4e
4r
=8
8f#
8g
8f#
8e
=9
2d}
=10
{4a
4dd
=11
8dd
8ee
8ff#
8ee
=12
8ee
8dd
8cc#
8b
=13
4a
4dd}
=14
{8dd
8ee
8ff#
8ee
=15
8dd
8ff#
8ee
8dd
=16
8cc#
8ee
8dd
8cc#
=17
2b}
=18
{8b
8dd
8dd
8cc#
=19
8dd
8b
4a
=20
8a
8b
8b
8a
=21
8b
8a
8.f#
16e
=22
8d
8e
4f#}
=23
{8.a
16g
8g
8f#
=24
8f#
8a
8e
8e
=25
2d}
==
!!!AGN: Qingge. Biaoda aiqing
!! Die Saengerin Lei Huilan ist Angehoerige der Zhuang Minderheit und
!!    studiert an der Guangzhouer Musikhochschule.
!!    Aufgenommen am 5.5.87
!!!ONB: ESAC (Essen Associative Code) Database: CHINA
!!!AMT: simple duple
!!!AIN: vox
!!!EED: Helmut Schaffrath
!!!EEV: 1.0
*-
